X:1
T:4. Das Reden
T:4. Das Reden
T:(Aus Charles Neate's Stammbuch.)
T:Ludwig van Beethoven Componirt am 24. Januar 1816 
T:                  Dreistimmiger Canon.
C:Ludwig van Beethoven - Componirt am 24. Januar 1816
Z:Dreistimmiger Canon.
%%score [ 1 2 3 ]
L:1/8
Q:1/4=110
M:2/4
K:F
V:1 treble nm="1. Stimme."
V:2 treble nm="2. Stimme."
V:3 treble nm="3. Stimme."
V:1
!f!"^Vivace (Lebhaft)" c B B A | A G G F | G A B c | d2 B2 | G2"^dolce" (c2- | c>d) =B z | %6
w: Re- de, re- de,|re- de, re- de,|wenn's um ei- nen|Freund dir|gilt. Re-|* * de,|
 (_B>c) A z | d d e f | c2 B3/2 B/ | B A z2 | c2 B3/2 G/ | G F z2 | z2!f! d c | c B B A | %14
w: re- * de,|ei- ner Schö- nen|Schö- nes zu|sa- gen,|Schö- nes zu|sa- gen.|Re- de,|re- de, re- de,|
 B A G (F/_E/) | D D G G | =E F E"^dolce" (E | F2- F3/2) G/ | (E2 _E3/2) F/ | D B c d | %20
w: wenn's um ei- nen _|Freund, um ei- nen|Freund dir gilt. Re-|* * de,|re * de,|ei- ner Schö- nen|
 A2 G3/2 G/ | G F f c | (A2 G) E | c c/ c/ A F |: z2!f! F F | z2 F F | F/ F/ F/ F/ F/ F/ F/ F/ | %27
w: Schö- nes zu|sa- gen, Schö- nes,|Schö- * nes.|Schö- nes zu sa- gen.|Re- de,|re- de,|re- de, re- de, re- de, re- de|
 B, A, B, =B, | C =B, C"^dolce" (C | D2) G z | (C2 F) F | B,/ B,/ B,/ B,/ B,/ B,/ B,/ B,/ | %32
w: wenn's um ei- nen|Freund dir gilt. Re-|* de,|re- * de,|re- de, re- de, re- de, re- de,|
 C C C C | C D/ E/ F A | C4- | C D/ E/ F F |!f! c B B A | A G G F | G A B c | d2 B2 | %40
w: ei- ner Schö- nen|Schö- nes zu sa- gen,|Schö-|* nes zu sa- gen.|Re- de, re- de,|re- de, re- de,|wenn's um ei- nen|Freund dir|
 G2"^dolce" (c2- | c>d) =B z | (B>c) A z | d d e f | c2 B3/2 B/ | B A z2 | c2 B3/2 G/ | G F z2 | %48
w: gilt. Re|* * de,|re- * de,|ei- ner Schö- nen|Schö- nes zu|sa- gen-|Schö- nes zu|sa- gen.|
 z2!f! d c | c B B A | B A G (F/_E/) | D D G G | =E F E"^dolce" (E | F2- F3/2) G/ | (E2 _E3/2) F/ | %55
w: Re- de,|re- de, re- de,|wenn's um ei- nen _|Freund, um ei- nen|Freund dir gilt, re-|* * de,|re- * de,|
 D B c d | A2 G3/2 G/ | G F f c | (A2 G) E | c c/ c/ A F :| %60
w: ei- ner Schö- nen|Schö- nes zu|Sa- gen, Schö- nes,|schö- * nes,|schö- nes zu sa- gen.|
V:2
 z4 | z4 | z4 | z4 | z4 | z4 | z4 | z4 | z4 | z4 | z4 | z4 |!f! c B B A | A G G F | G A B c | %15
w: ||||||||||||Re- de, re- de,|re- de, re- de,|wenn's um ei- nen|
 d2 B2 | G2"^dolce" (c2- | c>d) =B z | (_B>c) A z | d d e f | c2 B3/2 B/ | B A z2 | c2 B3/2 G/ | %23
w: Freund dir|gilt. Re-|* * de,|re- * de,|ei- ner Schö- nen|Schö- nes zu|sa- gen,|Schö- nes zu|
 G F z2 |: z2!f! d c | c B B A | B A G (F/_E/) | D D G G | =E F E"^dolce" (E | F2- F3/2) G/ | %30
w: sa- gen.|Re- de,|re- de, re- de,|wenn's um ei- nen _|Freund, um ei- nen|Freund dir gilt. Re-|* * de,|
 (E2 _E3/2) F/ | D B c d | A2 G3/2 G/ | G F f c | (A2 G) E | c c/ c/ A F | z2!f! F F | z2 F F | %38
w: re- * de,|ei- ner Schö- nen|Schö- nes zu|sa- gen, Schö- nes,|Schö- * nes,|Schö- nes zu sa- gen.|Re- de,|re- de,|
 F/ F/ F/ F/ F/ F/ F/ F/ | B, A, B, =B, | C =B, C"^dolce" (C | D2) G z | (C2 F) F | %43
w: re- de, re- de, re- de, re- de,|wenn's um ei- nen|Freund dir gilt. Re-|* de,|re- * de,|
 B,/ B,/ B,/ B,/ B,/ B,/ B,/ B,/ | C C C C | C D/ E/ F A | C4- | C D/ E/ F F |!f! c B B A | %49
w: re- de, re- de, re- de, re- de,|ei- ner Schö- nen|Schö- nes zu sa- gen,|Schö-|* nes zu sa- gen.|Re- de, re- de,|
 A G G F | G A B c | d2 B2 | G2"^dolce" (c2- | c>d) =B z | (_B>c) A z | d d e f | c2 B3/2 B/ | %57
w: re- de, re- de,|wenn's um ei- nen|Freund dir|gilt. Re-|* * de,|re- * de,|ei- ner Schö- nen|Schö- nes zu|
 B A z2 | c2 B3/2 G/ | G F z2 :| %60
w: sa- gen,|Schö- nes zu|sa- gen.|
V:3
 z4 | z4 | z4 | z4 | z4 | z4 | z4 | z4 | z4 | z4 | z4 | z4 | z4 | z4 | z4 | z4 | z4 | z4 | z4 | %19
w: |||||||||||||||||||
 z4 | z4 | z4 | z4 | z4 |:!f! c B B A | A G G F | G A B c | d2 B2 | G2"^dolce" (c2- | c>d) =B z | %30
w: |||||Re- de, re- de,|re- de, r- de,|wenn's um ei- nen|Freund dir|gilt. Re-|* * de,|
 (_B>c) A z | d d e f | c2 B3/2 B/ | B A z2 | c2 B3/2 G/ | G F z2 | z2!f! d c | c B B A | %38
w: re- * de|ei- ner Schö- nen|Schö- nes zu|sa- gen,|Schö- nes zu|sa- gen.|Re- de,|re- de, re- de,|
 B A G (F/_E/) | D D G G | =E F E"^dolce" (E | F2- F3/2) G/ | (E2 _E3/2) F/ | D B c d | %44
w: wenn's um ei- nen _|Freund, um ei- nen|Freund dir gilt. Re-|* * de,|re- * de,|ei- ner Schö- nen|
 A2 G3/2 G/ | G F f c | (A2 G) E | c c/ c/ A F | z2!f! F F | z2 F F | F/ F/ F/ F/ F/ F/ F/ F/ | %51
w: Schö- nes zu|sa- gen, Schö- nes,|Schö- * nes,|Schö- nes zu sa- gen.|Re- de,|re- de,|re- de, re- de, re- de, re- de,|
 B, A, B, =B, | C =B, C"^dolce" (C | D2) G z | (C2 F) F | B,/ B,/ B,/ B,/ B,/ B,/ B,/ B,/ | %56
w: wenn's um ei- nen|Freund dir gilt. Re-|* de,|re- * de,|re- de, re- de, re- de, re- de,|
 C C C C | C D/ E/ F A | C4- | C D/ E/ F F :| %60
w: ei- ner Schö- nen|Schö- nes zu sa- gen,|Schö-|* nes zu sa- gen.|

